X:101
T:Qual Lou Li Portoro ?
M:2/4
L:1/8
N:Mouvt de marche
N: A la tt de la  Gerbobaudo  en Quercy.
N:  La moisson termine, on porte un rameau
N:   un jeune fille, en chantant:
N:La Bourre 4th edition 1929, page 97
Z:Steve Mansfield www.lesession.co.uk June 2012
K:Bb
{B}f2 | f e d c | B2 {B}f2 | f e d c | 
B3 d ||[M:6/8] c2 B A2 B | c c c c2 c | 
e2 e d2 c | (d2 c) B3 - | B6 |]

